X: 1
T: Harriet Haywood's Cranberry Bog
C: Deirdre Good Rees (2009)
N: Original version
M: C
L: 1/16
Z: 2009 John Chambers <jc:trillian.mit.edu>
K: D
|: D3ED3F   D3GD2A2  | A2G2F2E2 DC3D3E   | F3DF3E   F2D2E2F2 | D3CD3E   F2G2F2A2  |
|  dcB2cBA2 BAG2A2F2 | cBA2BAG2 A3FG3E   | D2E2F2G2 A3Bc3d   | dA3B3F   G2D2E2D2 :|
|: F2E2F2G2 F3DA3D   | A2B2A2G2 A3BA3F   | D2EFE2FG F2GAB2G2 | d2c2d2c2 B3G  BA3  |
|  dcB2cBA2 BAG2AGF2 | EDC2D2E2 F2E2D2C2 | D3ED3F   D3GD2A2  | dA3F3D   F2A2 d4  :|


%%sep 3 1 500

